X:185
T:Old Sadlers. Ru2.185
%%VWML:RutherfordVol2-2249-p93-0
F:http://www.vwml.org/record/RutherfordVol2/2249/p93
Z:vmp.Ruairidh Greig 2015 www.village-music-project.org.uk
M:6/8
L:1/8
Q:1/4=100
N:Possibly should be Gm
K:G
G>BG dBG|f3e2g|dgd dBG|gef cAF|
G>BG dBG|f3=e2g|ded dBg|cAFG3||
"tr"B>cd dBg|dBg dBG|"tr"c>de ecg|ecg ecA|
B>cd dBg|dBg dBG|fff =eee|dAFG3||
W:The first Man cast off & turn the 3d. Woman
W:and stand in the 2d. Mans place .| The first
W:Wo. does the same & stand in the 2d Woman's
W:place :| Foot it all 4 & Hands across with the
W:Bottom Cou. | Right Hand & Left with the
W:Top Couple.
T:Miss Hamelton's Reell. Ru2.186
B:RUTHERFORD Complete Collection of 200 Country Dances Vol.2; 1759.
Z:vmp.Ruairidh Greig 2015 www.village-music-project.org.uk
M:6/8
L:1/8
R:Reel
Q:1/4=100
K:D
A|(F/G/A)F D2A|(de)d dAF|(F/G/A)F D2f|eEE E2A|
(F/G/A)FD2A|ded dAF|FdF Edc|dAFD2:|
|:g|(f/g/a)f d2f|(aba) afd|(f/g/a)fd2f|eEEE2g|
(f/g/a)fd2a|bag fed|(B/c/d)B AFB|AFDD2:|
W:Foot it & Hands across with the 3d. Cou. .|
W:Cast up again & Hands across with the 2d.
W:Cou. Cross over 2 Cou. .|. Lead up to the
W:Top Foot it & cast off. :|
